docs/assets/images/workflow.svg

<svg xmlns="http://www.w3.org/2000/svg" width="69" height="68" fill="none" viewBox="0 0 69 68"><path fill="#5AB0FF" d="M42.7591 53.9363V58.1179C42.7591 59.1844 42.1953 59.6871 41.157 59.6871H31.9856C31.4171 59.6871 30.9943 59.5321 30.7218 59.222L30.6795 59.1656C30.4822 58.9119 30.3882 58.5642 30.3882 58.1179V53.9363C30.3882 52.865 30.952 52.3623 31.9856 52.3623H41.157C41.7067 52.3623 42.1248 52.5033 42.3926 52.7946V52.804C42.637 53.0624 42.7591 53.4382 42.7591 53.9363Z"/><path fill="#5AB0FF" d="M42.7591 33.0193V37.2009C42.7591 38.2674 42.1953 38.7701 41.157 38.7701H31.9856C31.4171 38.7701 30.9943 38.6151 30.7218 38.305L30.6795 38.2486C30.4822 37.9949 30.3882 37.6472 30.3882 37.2009V33.0193C30.3882 31.948 30.952 31.4453 31.9856 31.4453H41.157C41.7067 31.4453 42.1248 31.5863 42.3926 31.8776V31.887C42.637 32.1454 42.7591 32.5212 42.7591 33.0193Z"/><path fill="#5AB0FF" d="M42.7591 12.1062V16.2878C42.7591 17.3543 42.1953 17.8571 41.157 17.8571H31.9856C31.4171 17.8571 30.9943 17.702 30.7218 17.3919L30.6795 17.3355C30.4822 17.0818 30.3882 16.7341 30.3882 16.2878V12.1062C30.3882 11.035 30.952 10.5322 31.9856 10.5322H41.157C41.7067 10.5322 42.1248 10.6732 42.3926 10.9645V10.9739C42.637 11.2323 42.7591 11.6082 42.7591 12.1062Z"/><path fill="#B0D9FF" d="M13.6251 49.1393H9.97442C9.40591 49.1393 8.98305 48.9842 8.71054 48.6741L8.66826 48.6178C8.47092 48.3641 8.37695 48.0164 8.37695 47.57V43.3884C8.37695 42.3172 8.94076 41.8145 9.97442 41.8145H19.1457C19.6954 41.8145 20.1136 41.9554 20.3814 42.2467V42.2561C20.6257 42.5145 20.7479 42.8904 20.7479 43.3884V47.57C20.7479 48.6366 20.1841 49.1393 19.1457 49.1393H13.6251Z"/><path fill="#B0D9FF" d="M62.6663 22.4709V26.6525C62.6663 27.7191 62.1025 28.2218 61.0642 28.2218H51.8929C51.3244 28.2218 50.9015 28.0668 50.629 27.7567L50.5867 27.7003C50.3894 27.4466 50.2954 27.0989 50.2954 26.6525V22.4709C50.2954 21.3997 50.8592 20.897 51.8929 20.897H61.0642C61.6139 20.897 62.0321 21.0379 62.2999 21.3292V21.3386C62.5442 21.597 62.6663 21.9729 62.6663 22.4709Z"/><path fill="#B0D9FF" d="M18.234 11.6268C18.7696 12.3409 19.0844 13.2336 19.0844 14.1968C19.0844 16.5742 17.158 18.5006 14.7806 18.5006C13.5966 18.5006 12.516 18.0166 11.736 17.2414C10.9561 16.4615 10.4722 15.3855 10.4722 14.1968C10.4722 11.8194 12.4032 9.89307 14.7759 9.89307C16.1901 9.89307 17.4399 10.5696 18.2246 11.6221C18.2246 11.6221 18.2293 11.6221 18.2293 11.6268H18.234Z"/><path fill="#003C73" d="M57.1976 55.6889L51.3716 60.1947V51.1831L57.1976 55.6889Z"/><path fill="#003C73" d="M30.3883 53.9365V58.1181C30.3883 58.5645 30.4869 58.9122 30.6796 59.1659L29.6083 57.7939L29.5707 57.7235C29.4439 57.4885 29.3828 57.1925 29.3828 56.8308V52.6492C29.3828 51.5779 29.9466 51.0752 30.9803 51.0752H40.1516C40.6402 51.0752 41.0255 51.188 41.2933 51.4229L41.3591 51.4887L42.3927 52.7995C42.1249 52.5082 41.7068 52.3673 41.1571 52.3673H31.9857C30.9474 52.3673 30.3883 52.87 30.3883 53.9412V53.9365Z"/><path fill="#003C73" d="M19.1448 41.8098H9.97353C8.93518 41.8098 8.37607 42.3126 8.37607 43.3838V47.5654C8.37607 48.0117 8.47473 48.3594 8.66737 48.6131L7.59613 47.2412L7.55854 47.1707C7.43168 46.9358 7.37061 46.6398 7.37061 46.278V42.0964C7.37061 41.0252 7.93442 40.5225 8.96807 40.5225H18.1394C18.628 40.5225 19.0133 40.6352 19.2811 40.8701L19.3469 40.9359L20.3805 42.2468C20.1127 41.9555 19.6946 41.8145 19.1448 41.8145V41.8098Z"/><path fill="#003C73" d="M61.2663 20.023L62.3 21.3339C62.0322 21.0426 61.614 20.9016 61.0643 20.9016H51.893C50.8546 20.9016 50.2955 21.4044 50.2955 22.4756V26.6572C50.2955 27.1035 50.3942 27.4512 50.5868 27.7049L49.5156 26.333L49.478 26.2625C49.3511 26.0276 49.29 25.7316 49.29 25.3698V21.1882C49.29 20.117 49.8538 19.6143 50.8875 19.6143H60.0588C60.5475 19.6143 60.9327 19.727 61.2005 19.9619L61.2663 20.0277V20.023Z"/><path fill="#003C73" d="M30.3883 12.1062V16.2877C30.3883 16.7341 30.4869 17.0818 30.6796 17.3355L29.6083 15.9636L29.5707 15.8931C29.4439 15.6582 29.3828 15.3622 29.3828 15.0004V10.8235C29.3828 9.75224 29.9466 9.24951 30.9803 9.24951H40.1516C40.6402 9.24951 41.0255 9.36227 41.2933 9.59719L41.3591 9.66297L42.3927 10.9738C42.1249 10.6825 41.7068 10.5416 41.1571 10.5416H31.9857C30.9474 10.5416 30.3883 11.0443 30.3883 12.1155V12.1062Z"/><path fill="#003C73" d="M16.7118 9.76647L16.8386 9.89332C17.5152 10.5699 17.9099 11.1149 18.2294 11.6223C17.4447 10.5699 16.1949 9.89332 14.7807 9.89332C12.4033 9.89332 10.477 11.8244 10.477 14.1971C10.477 15.3858 10.9609 16.4617 11.7408 17.2417L11.722 17.2604C11.0549 16.6356 10.5756 15.9637 10.1716 15.2683C9.72991 14.5917 9.4668 13.7836 9.4668 12.9097C9.4668 10.537 11.3978 8.60596 13.7705 8.60596C14.9029 8.60596 15.9365 9.04761 16.7071 9.76647H16.7118Z"/><path fill="#003C73" d="M30.3883 33.0191V37.2006C30.3883 37.647 30.4869 37.9947 30.6796 38.2484L29.6083 36.8765L29.5707 36.806C29.4439 36.5711 29.3828 36.2751 29.3828 35.9133V31.7317C29.3828 30.6604 29.9466 30.1577 30.9803 30.1577H40.1516C40.6402 30.1577 41.0255 30.2705 41.2933 30.5054L41.3591 30.5712L42.3927 31.882C42.1249 31.5907 41.7068 31.4498 41.1571 31.4498H31.9857C30.9474 31.4498 30.3883 31.9525 30.3883 33.0238V33.0191Z"/><path stroke="#003C73" stroke-linecap="round" stroke-linejoin="round" d="M18.234 11.6268C18.7696 12.3409 19.0844 13.2336 19.0844 14.1968C19.0844 16.5742 17.158 18.5006 14.7806 18.5006C13.5966 18.5006 12.516 18.0166 11.736 17.2414C10.9561 16.4615 10.4722 15.3855 10.4722 14.1968C10.4722 11.8194 12.4032 9.89307 14.7759 9.89307C16.1901 9.89307 17.4399 10.5696 18.2246 11.6221"/><path stroke="#003C73" stroke-linecap="round" stroke-linejoin="round" d="M31.9902 10.5322H41.1569"/><path stroke="#003C73" stroke-linecap="round" stroke-linejoin="round" d="M31.9902 17.8569H41.1569"/><path stroke="#003C73" stroke-linecap="round" stroke-linejoin="round" d="M42.7588 12.1064V13.8637V16.288"/><path stroke="#003C73" stroke-linecap="round" stroke-linejoin="round" d="M30.3882 12.1064V16.288"/><path stroke="#003C73" stroke-linecap="round" stroke-linejoin="round" d="M30.3882 12.1062C30.3882 11.035 30.952 10.5322 31.9856 10.5322"/><path stroke="#003C73" stroke-linecap="round" stroke-linejoin="round" d="M42.3924 10.9645C42.1246 10.6732 41.7065 10.5322 41.1567 10.5322"/><path stroke="#003C73" stroke-linecap="round" stroke-linejoin="round" d="M42.7588 12.1064C42.7588 11.6131 42.6366 11.2372 42.397 10.9741"/><path stroke="#003C73" stroke-linecap="round" stroke-linejoin="round" d="M30.7266 17.3921C30.9944 17.7022 31.4219 17.8572 31.9904 17.8572"/><path stroke="#003C73" stroke-linecap="round" stroke-linejoin="round" d="M30.3882 16.2881C30.3882 16.7344 30.4868 17.0821 30.6795 17.3358"/><path stroke="#003C73" stroke-linecap="round" stroke-linejoin="round" d="M42.7589 16.2881C42.7589 17.3546 42.1951 17.8574 41.1567 17.8574"/><path stroke="#003C73" stroke-linecap="round" stroke-linejoin="round" d="M10.1716 15.2683C9.72991 14.5917 9.4668 13.7836 9.4668 12.9097C9.4668 10.537 11.3978 8.60596 13.7705 8.60596C14.9029 8.60596 15.9365 9.04761 16.7071 9.76647"/><path stroke="#003C73" stroke-linecap="round" stroke-linejoin="round" d="M30.9805 9.24951H40.1518"/><path stroke="#003C73" stroke-linecap="round" stroke-linejoin="round" d="M29.3828 10.8237V15.0006"/><path stroke="#003C73" stroke-linecap="round" stroke-linejoin="round" d="M29.3828 10.8235C29.3828 9.75224 29.9466 9.24951 30.9803 9.24951"/><path stroke="#003C73" stroke-linecap="round" stroke-linejoin="round" d="M41.2941 9.5928C41.0262 9.36258 40.641 9.24512 40.1523 9.24512"/><path stroke="#003C73" stroke-linecap="round" stroke-linejoin="round" d="M29.3828 15.0005C29.3828 15.3623 29.4486 15.6583 29.5707 15.8932"/><path stroke="#003C73" stroke-linecap="round" stroke-linejoin="round" d="M18.2333 11.6268C18.2333 11.6268 18.2333 11.6268 18.2286 11.6221C17.9091 11.1147 17.5145 10.5649 16.8379 9.89307"/><path stroke="#003C73" stroke-linecap="round" stroke-linejoin="round" d="M11.7595 17.2931C11.7595 17.2931 11.736 17.2696 11.7219 17.2602C11.0547 16.6353 10.5755 15.9634 10.1714 15.2681"/><path stroke="#003C73" stroke-linecap="round" stroke-linejoin="round" d="M30.7261 17.3917L30.6838 17.3353L29.6079 15.9634"/><path stroke="#003C73" stroke-linecap="round" stroke-linejoin="round" d="M42.3977 10.9738L42.393 10.9644L41.3594 9.6582"/><path stroke="#003C73" stroke-linecap="round" stroke-linejoin="round" d="M51.8936 20.897H61.0649"/><path stroke="#003C73" stroke-linecap="round" stroke-linejoin="round" d="M51.8936 28.2222H56.3852H61.0649"/><path stroke="#003C73" stroke-linecap="round" stroke-linejoin="round" d="M62.6621 22.4712V26.6528"/><path stroke="#003C73" stroke-linecap="round" stroke-linejoin="round" d="M50.2954 22.4712V26.6528"/><path stroke="#003C73" stroke-linecap="round" stroke-linejoin="round" d="M50.2954 22.4709C50.2954 21.3997 50.8592 20.897 51.8929 20.897"/><path stroke="#003C73" stroke-linecap="round" stroke-linejoin="round" d="M62.2996 21.3292C62.0318 21.0379 61.6137 20.897 61.064 20.897"/><path stroke="#003C73" stroke-linecap="round" stroke-linejoin="round" d="M62.6665 22.4712C62.6665 21.9779 62.5443 21.602 62.3047 21.3389"/><path stroke="#003C73" stroke-linecap="round" stroke-linejoin="round" d="M50.6299 27.7568C50.8977 28.0669 51.3252 28.222 51.8938 28.222"/><path stroke="#003C73" stroke-linecap="round" stroke-linejoin="round" d="M50.2954 26.6528C50.2954 27.0992 50.3941 27.4469 50.5867 27.7006"/><path stroke="#003C73" stroke-linecap="round" stroke-linejoin="round" d="M62.6661 26.6528C62.6661 27.7194 62.1023 28.2221 61.064 28.2221"/><path stroke="#003C73" stroke-linecap="round" stroke-linejoin="round" d="M50.8828 19.6143H56.1544H60.0541"/><path stroke="#003C73" stroke-linecap="round" stroke-linejoin="round" d="M49.2856 21.1885V25.3701"/><path stroke="#003C73" stroke-linecap="round" stroke-linejoin="round" d="M49.2856 21.1882C49.2856 20.117 49.8495 19.6143 50.8831 19.6143"/><path stroke="#003C73" stroke-linecap="round" stroke-linejoin="round" d="M61.1964 19.9575C60.9286 19.7273 60.5433 19.6099 60.0547 19.6099"/><path stroke="#003C73" stroke-linecap="round" stroke-linejoin="round" d="M49.2856 25.3701C49.2856 25.7319 49.3514 26.0279 49.4736 26.2628"/><path stroke="#003C73" stroke-linecap="round" stroke-linejoin="round" d="M50.6287 27.7569L50.5864 27.7006L49.5151 26.3286"/><path stroke="#003C73" stroke-linecap="round" stroke-linejoin="round" d="M62.3045 21.3385L62.2998 21.3291L61.2661 20.0229"/><path stroke="#003C73" stroke-linecap="round" stroke-linejoin="round" d="M9.97363 41.8096H19.1449"/><path stroke="#003C73" stroke-linecap="round" stroke-linejoin="round" d="M9.97363 49.1392H13.6243H19.1449"/><path stroke="#003C73" stroke-linecap="round" stroke-linejoin="round" d="M20.7422 43.3838V47.5654"/><path stroke="#003C73" stroke-linecap="round" stroke-linejoin="round" d="M8.37695 43.3838V47.5654"/><path stroke="#003C73" stroke-linecap="round" stroke-linejoin="round" d="M8.37695 43.3835C8.37695 42.3123 8.94076 41.8096 9.97442 41.8096"/><path stroke="#003C73" stroke-linecap="round" stroke-linejoin="round" d="M20.3812 42.2467C20.1134 41.9554 19.6952 41.8145 19.1455 41.8145"/><path stroke="#003C73" stroke-linecap="round" stroke-linejoin="round" d="M20.7475 43.3838C20.7475 42.8904 20.6254 42.5146 20.3857 42.2515"/><path stroke="#003C73" stroke-linecap="round" stroke-linejoin="round" d="M8.70996 48.6738C8.97777 48.9839 9.40533 49.139 9.97384 49.139"/><path stroke="#003C73" stroke-linecap="round" stroke-linejoin="round" d="M8.37695 47.5654C8.37695 48.0118 8.47562 48.3595 8.66826 48.6132"/><path stroke="#003C73" stroke-linecap="round" stroke-linejoin="round" d="M20.7477 47.5654C20.7477 48.632 20.1839 49.1347 19.1455 49.1347"/><path stroke="#003C73" stroke-linecap="round" stroke-linejoin="round" d="M8.96387 40.5269H13.8549H18.1352"/><path stroke="#003C73" stroke-linecap="round" stroke-linejoin="round" d="M7.36621 42.1011V46.2827"/><path stroke="#003C73" stroke-linecap="round" stroke-linejoin="round" d="M7.36621 42.1008C7.36621 41.0296 7.93002 40.5269 8.96367 40.5269"/><path stroke="#003C73" stroke-linecap="round" stroke-linejoin="round" d="M19.2765 40.8745C19.0087 40.6443 18.6234 40.5269 18.1348 40.5269"/><path stroke="#003C73" stroke-linecap="round" stroke-linejoin="round" d="M7.36621 46.2827C7.36621 46.6445 7.43199 46.9405 7.55415 47.1754"/><path stroke="#003C73" stroke-linecap="round" stroke-linejoin="round" d="M8.71021 48.6739L8.66792 48.6128L7.59668 47.2456"/><path stroke="#003C73" stroke-linecap="round" stroke-linejoin="round" d="M20.3855 42.2563L20.3808 42.2469L19.3472 40.936"/><path stroke="#003C73" stroke-linecap="round" stroke-linejoin="round" d="M31.9902 31.4453H41.1569"/><path stroke="#003C73" stroke-linecap="round" stroke-linejoin="round" d="M31.9902 38.77H41.1569"/><path stroke="#003C73" stroke-linecap="round" stroke-linejoin="round" d="M42.7588 33.019V37.2006"/><path stroke="#003C73" stroke-linecap="round" stroke-linejoin="round" d="M30.3882 33.019V37.2006"/><path stroke="#003C73" stroke-linecap="round" stroke-linejoin="round" d="M30.3882 33.0193C30.3882 31.948 30.952 31.4453 31.9856 31.4453"/><path stroke="#003C73" stroke-linecap="round" stroke-linejoin="round" d="M42.3924 31.882C42.1246 31.5907 41.7065 31.4497 41.1567 31.4497"/><path stroke="#003C73" stroke-linecap="round" stroke-linejoin="round" d="M42.7588 33.019C42.7588 32.5257 42.6366 32.1498 42.397 31.8867"/><path stroke="#003C73" stroke-linecap="round" stroke-linejoin="round" d="M30.7266 38.3096C30.9944 38.6197 31.4219 38.7747 31.9904 38.7747"/><path stroke="#003C73" stroke-linecap="round" stroke-linejoin="round" d="M30.3882 37.2007C30.3882 37.647 30.4868 37.9947 30.6795 38.2484"/><path stroke="#003C73" stroke-linecap="round" stroke-linejoin="round" d="M42.7589 37.2007C42.7589 38.2672 42.1951 38.77 41.1567 38.77"/><path stroke="#003C73" stroke-linecap="round" stroke-linejoin="round" d="M30.9805 30.1621H40.1518"/><path stroke="#003C73" stroke-linecap="round" stroke-linejoin="round" d="M29.3828 31.7363V35.9179"/><path stroke="#003C73" stroke-linecap="round" stroke-linejoin="round" d="M29.3828 31.7361C29.3828 30.6648 29.9466 30.1621 30.9803 30.1621"/><path stroke="#003C73" stroke-linecap="round" stroke-linejoin="round" d="M41.2941 30.5054C41.0262 30.2752 40.641 30.1577 40.1523 30.1577"/><path stroke="#003C73" stroke-linecap="round" stroke-linejoin="round" d="M29.3828 35.918C29.3828 36.2797 29.4486 36.5757 29.5707 36.8107"/><path stroke="#003C73" stroke-linecap="round" stroke-linejoin="round" d="M30.7261 38.3092L30.6838 38.2481L29.6079 36.8809"/><path stroke="#003C73" stroke-linecap="round" stroke-linejoin="round" d="M42.3977 31.8911L42.393 31.8817L41.3594 30.5708"/><path stroke="#003C73" stroke-linecap="round" stroke-linejoin="round" d="M31.9902 52.3579H41.1569"/><path stroke="#003C73" stroke-linecap="round" stroke-linejoin="round" d="M31.9902 59.6875H41.1569"/><path stroke="#003C73" stroke-linecap="round" stroke-linejoin="round" d="M42.7588 53.9365V58.1134"/><path stroke="#003C73" stroke-linecap="round" stroke-linejoin="round" d="M30.3882 53.9365V58.1134"/><path stroke="#003C73" stroke-linecap="round" stroke-linejoin="round" d="M30.3882 53.9363C30.3882 52.865 30.952 52.3623 31.9856 52.3623"/><path stroke="#003C73" stroke-linecap="round" stroke-linejoin="round" d="M42.3924 52.7946C42.1246 52.5033 41.7065 52.3623 41.1567 52.3623"/><path stroke="#003C73" stroke-linecap="round" stroke-linejoin="round" d="M42.7588 53.9365C42.7588 53.4432 42.6366 53.0673 42.397 52.8042"/><path stroke="#003C73" stroke-linecap="round" stroke-linejoin="round" d="M30.7266 59.2217C30.9944 59.5318 31.4219 59.6868 31.9904 59.6868"/><path stroke="#003C73" stroke-linecap="round" stroke-linejoin="round" d="M30.3882 58.1133C30.3882 58.5596 30.4868 58.9073 30.6795 59.161"/><path stroke="#003C73" stroke-linecap="round" stroke-linejoin="round" d="M42.7589 58.1133C42.7589 59.1798 42.1951 59.6826 41.1567 59.6826"/><path stroke="#003C73" stroke-linecap="round" stroke-linejoin="round" d="M30.9805 51.0752H40.1518"/><path stroke="#003C73" stroke-linecap="round" stroke-linejoin="round" d="M29.3828 52.6489V56.8305"/><path stroke="#003C73" stroke-linecap="round" stroke-linejoin="round" d="M29.3828 52.6492C29.3828 51.5779 29.9466 51.0752 30.9803 51.0752"/><path stroke="#003C73" stroke-linecap="round" stroke-linejoin="round" d="M41.2941 51.4229C41.0262 51.1927 40.641 51.0752 40.1523 51.0752"/><path stroke="#003C73" stroke-linecap="round" stroke-linejoin="round" d="M29.3828 56.8306C29.3828 57.1923 29.4486 57.4883 29.5707 57.7233"/><path stroke="#003C73" stroke-linecap="round" stroke-linejoin="round" d="M30.7261 59.2223L30.6838 59.1612L29.6079 57.7939"/><path stroke="#003C73" stroke-linecap="round" stroke-linejoin="round" d="M42.3977 52.8041L42.393 52.7947L41.3594 51.4839"/><path stroke="#003C73" stroke-linecap="round" stroke-linejoin="round" d="M20.7476 34.7759H29.2141"/><path stroke="#003C73" stroke-linecap="round" stroke-linejoin="round" d="M42.7588 34.7759H49.4728"/><path stroke="#003C73" stroke-linecap="round" stroke-linejoin="round" d="M19.085 13.8633H29.2758"/><path stroke="#003C73" stroke-linecap="round" stroke-linejoin="round" d="M42.7588 13.8633H49.4728"/><path stroke="#003C73" stroke-linecap="round" stroke-linejoin="round" d="M20.7476 55.6885H29.2141"/><path stroke="#003C73" stroke-linecap="round" stroke-linejoin="round" d="M43.0225 55.6885H51.2353"/><path stroke="#003C73" stroke-linecap="round" stroke-linejoin="round" d="M56.1545 19.6141C55.102 16.3534 52.875 13.8633 49.478 13.8633"/><path stroke="#003C73" stroke-linecap="round" stroke-linejoin="round" d="M49.4736 34.7765C53.1478 34.7765 55.45 31.8728 56.385 28.2222"/><path stroke="#003C73" stroke-linecap="round" stroke-linejoin="round" d="M13.8545 40.5267C14.9116 37.266 17.134 34.7759 20.5309 34.7759"/><path stroke="#003C73" stroke-linecap="round" stroke-linejoin="round" d="M20.5315 55.6888C16.8573 55.6888 14.5551 52.7852 13.6248 49.1345C13.6248 49.1298 13.6248 49.1204 13.6201 49.1157"/><path stroke="#003C73" stroke-linecap="round" stroke-linejoin="round" d="M51.3716 51.1831V60.1947"/><path stroke="#003C73" stroke-linecap="round" stroke-linejoin="round" d="M51.3716 51.1831L57.1976 55.6889"/><path stroke="#003C73" stroke-linecap="round" stroke-linejoin="round" d="M51.3716 60.1943L57.1976 55.6885"/></svg>

<svg xmlns="http://www.w3.org/2000/svg" width="69" height="68" fill="none" viewBox="0 0 69 68"><path fill="#5ab0ff" d="M42.76 53.936v4.182c0 1.066-.565 1.57-1.603 1.57h-9.171q-.855 0-1.264-.466l-.043-.056c-.197-.254-.29-.602-.29-1.048v-4.182c0-1.071.563-1.574 1.597-1.574h9.171c.55 0 .968.141 1.236.433v.009q.366.386.366 1.132m.001-20.916v4.18c0 1.067-.565 1.57-1.603 1.57h-9.171q-.855 0-1.264-.465l-.043-.056c-.197-.254-.29-.602-.29-1.048v-4.182c0-1.071.563-1.574 1.597-1.574h9.171c.55 0 .968.141 1.236.433v.009q.366.386.366 1.132m.001-20.913v4.182c0 1.066-.565 1.57-1.603 1.57h-9.171q-.855 0-1.264-.466l-.043-.056c-.197-.254-.29-.602-.29-1.048v-4.182c0-1.071.563-1.574 1.597-1.574h9.171c.55 0 .968.141 1.236.432v.01q.366.386.366 1.132"/><path fill="#b0d9ff" d="M13.625 49.14h-3.65q-.856 0-1.264-.466l-.043-.056c-.197-.254-.291-.602-.291-1.048v-4.182c0-1.07.564-1.573 1.597-1.573h9.172c.55 0 .968.14 1.235.432v.01q.367.386.367 1.131v4.182c0 1.067-.564 1.57-1.602 1.57zm49.041-26.67v4.183c0 1.066-.563 1.569-1.602 1.569h-9.171q-.855 0-1.264-.465l-.042-.057c-.198-.253-.292-.601-.292-1.047V22.47c0-1.071.564-1.574 1.598-1.574h9.171c.55 0 .968.14 1.236.432v.01q.366.386.366 1.132M18.234 11.627a4.27 4.27 0 0 1 .85 2.57 4.303 4.303 0 0 1-4.303 4.304 4.32 4.32 0 0 1-3.045-1.26 4.3 4.3 0 0 1-1.264-3.044 4.306 4.306 0 0 1 4.304-4.304 4.29 4.29 0 0 1 3.453 1.734z"/><path fill="#003c73" d="m57.198 55.689-5.826 4.506v-9.012zm-26.81-1.752v4.181q.001.669.292 1.048l-1.072-1.372-.037-.07q-.19-.351-.188-.893v-4.182c0-1.071.564-1.574 1.597-1.574h9.172c.488 0 .874.113 1.141.348l.066.066 1.034 1.31c-.268-.29-.686-.432-1.236-.432h-9.171c-1.039 0-1.598.503-1.598 1.574zM19.145 41.81H9.974c-1.039 0-1.598.503-1.598 1.574v4.181q.002.669.291 1.048l-1.07-1.372-.038-.07q-.19-.351-.188-.893v-4.182c0-1.07.563-1.573 1.597-1.573h9.171c.489 0 .874.112 1.142.347l.066.066 1.034 1.31c-.268-.29-.686-.431-1.236-.431zm42.121-21.787 1.034 1.31c-.268-.29-.686-.431-1.236-.431h-9.171c-1.038 0-1.598.502-1.598 1.574v4.181c0 .447.1.794.292 1.048l-1.071-1.372-.038-.07q-.19-.351-.188-.893v-4.182c0-1.071.564-1.574 1.598-1.574h9.17c.49 0 .875.113 1.142.348l.066.066zm-30.878-7.917v4.182q.001.668.292 1.047l-1.072-1.371-.037-.07q-.19-.352-.188-.894v-4.177c0-1.07.564-1.573 1.597-1.573h9.172c.488 0 .874.112 1.141.347l.066.066 1.034 1.31c-.268-.29-.686-.431-1.236-.431h-9.171c-1.039 0-1.598.502-1.598 1.574zm-13.676-2.34.127.127a9.4 9.4 0 0 1 1.39 1.73 4.29 4.29 0 0 0-3.448-1.73 4.306 4.306 0 0 0-4.304 4.304c0 1.189.484 2.265 1.264 3.045l-.019.018c-.667-.624-1.146-1.296-1.55-1.992a4.3 4.3 0 0 1-.705-2.358 4.31 4.31 0 0 1 4.304-4.304 4.3 4.3 0 0 1 2.936 1.16zM30.388 33.02v4.18q.001.67.292 1.048l-1.072-1.371-.037-.071q-.19-.35-.188-.893v-4.181c0-1.072.564-1.574 1.597-1.574h9.172c.488 0 .874.112 1.141.347l.066.066 1.034 1.311c-.268-.291-.686-.432-1.236-.432h-9.171c-1.039 0-1.598.503-1.598 1.574z"/><path stroke="#003c73" stroke-linecap="round" stroke-linejoin="round" d="M18.234 11.627a4.27 4.27 0 0 1 .85 2.57 4.303 4.303 0 0 1-4.303 4.304 4.32 4.32 0 0 1-3.045-1.26 4.3 4.3 0 0 1-1.264-3.044 4.306 4.306 0 0 1 4.304-4.304c1.414 0 2.664.677 3.449 1.73m13.765-1.091h9.167m-9.167 7.325h9.167m1.602-5.751v4.182m-12.371-4.182v4.182m0-4.182c0-1.071.564-1.574 1.598-1.574m10.406.433c-.267-.292-.686-.433-1.235-.433m1.602 1.574q-.001-.739-.362-1.132m-11.67 6.418c.267.31.695.465 1.263.465m-1.602-1.569q.002.668.291 1.048m12.08-1.048c0 1.067-.564 1.57-1.602 1.57"/><path stroke="#003c73" stroke-linecap="round" stroke-linejoin="round" d="M10.172 15.268a4.3 4.3 0 0 1-.705-2.358 4.31 4.31 0 0 1 4.304-4.304 4.3 4.3 0 0 1 2.936 1.16M30.98 9.25h9.172m-10.769 1.574V15m0-4.176c0-1.072.564-1.574 1.597-1.574m10.314.343c-.268-.23-.653-.348-1.142-.348M29.383 15c0 .362.066.658.188.893m-11.338-4.266-.004-.005a9.3 9.3 0 0 0-1.391-1.729"/><path stroke="#003c73" stroke-linecap="round" stroke-linejoin="round" d="M11.76 17.293s-.024-.023-.038-.033c-.667-.625-1.146-1.297-1.55-1.992m20.554 2.124-.042-.057-1.076-1.372m12.79-4.989-.005-.01-1.034-1.306m10.535 11.239h9.17m-9.17 7.325h9.171m1.597-5.751v4.182m-12.367-4.182v4.182m0-4.183c0-1.07.564-1.573 1.598-1.573m10.407.433c-.268-.292-.686-.433-1.236-.433m1.603 1.574q-.002-.738-.362-1.132M50.63 27.757c.268.31.695.465 1.264.465m-1.599-1.569c0 .446.1.794.292 1.048m12.079-1.048c0 1.066-.564 1.57-1.602 1.57m-10.181-8.609h9.171m-10.768 1.575v4.181m0-4.182c0-1.071.563-1.574 1.597-1.574m10.313.344c-.267-.23-.653-.348-1.141-.348m-10.769 5.76q.002.542.188.893m1.155 1.494-.043-.056-1.07-1.372"/><path stroke="#003c73" stroke-linecap="round" stroke-linejoin="round" d="m62.305 21.339-.005-.01-1.034-1.306M9.974 41.81h9.17m-9.17 7.33h9.17m1.598-5.756v4.181M8.377 43.384v4.181m0-4.181c0-1.072.564-1.574 1.597-1.574m10.407.437c-.268-.292-.686-.432-1.236-.432m1.603 1.569q-.002-.74-.362-1.133M8.71 48.674c.268.31.695.465 1.264.465m-1.597-1.574q.002.669.291 1.048m12.08-1.048c0 1.067-.564 1.57-1.603 1.57M8.964 40.527h9.171M7.366 42.101v4.182m0-4.183c0-1.07.564-1.573 1.598-1.573m10.313.348c-.268-.23-.654-.348-1.142-.348M7.366 46.283c0 .361.066.657.188.892m1.156 1.499-.042-.061-1.071-1.367"/><path stroke="#003c73" stroke-linecap="round" stroke-linejoin="round" d="m20.386 42.256-.005-.01-1.034-1.31m12.643-9.491h9.167M31.99 38.77h9.167m1.602-5.751v4.182m-12.371-4.182v4.182m0-4.181c0-1.072.564-1.575 1.598-1.575m10.406.437c-.267-.291-.686-.432-1.235-.432m1.602 1.569q-.001-.74-.362-1.132m-11.67 6.423c.267.31.695.465 1.263.465M30.388 37.2q.002.67.291 1.048m12.08-1.048c0 1.067-.564 1.57-1.602 1.57M30.98 30.162h9.172m-10.769 1.574v4.182m0-4.182c0-1.071.564-1.574 1.597-1.574m10.314.343c-.268-.23-.653-.347-1.142-.347m-10.769 5.76c0 .362.066.658.188.893"/><path stroke="#003c73" stroke-linecap="round" stroke-linejoin="round" d="m30.726 38.31-.042-.062-1.076-1.367m12.79-4.99-.005-.01-1.034-1.31M31.99 52.358h9.167m-9.167 7.33h9.167m1.602-5.751v4.176m-12.371-4.176v4.176m0-4.177c0-1.071.564-1.574 1.598-1.574m10.406.433c-.267-.292-.686-.433-1.235-.433m1.602 1.575q-.001-.74-.362-1.133m-11.67 6.418c.267.31.695.465 1.263.465m-1.602-1.574q.002.669.291 1.048m12.08-1.048c0 1.067-.564 1.57-1.602 1.57M30.98 51.075h9.172m-10.769 1.574v4.182m0-4.181c0-1.072.564-1.575 1.597-1.575m10.314.348c-.268-.23-.653-.348-1.142-.348M29.383 56.83c0 .362.066.658.188.893"/><path stroke="#003c73" stroke-linecap="round" stroke-linejoin="round" d="m30.726 59.222-.042-.06-1.076-1.368m12.79-4.99-.005-.01-1.034-1.31M20.748 34.776h8.466m13.545 0h6.714M19.085 13.863h10.19m13.484 0h6.714M20.748 55.689h8.466m13.809 0h8.212m4.92-36.075c-1.053-3.26-3.28-5.75-6.677-5.75m-.004 20.913c3.674 0 5.976-2.904 6.911-6.555m-42.53 12.305c1.057-3.261 3.279-5.751 6.676-5.751m.001 20.913c-3.675 0-5.977-2.904-6.907-6.554 0-.005 0-.015-.005-.02m37.752 2.068v9.012m0-9.012 5.826 4.506m-5.826 4.505 5.826-4.506"/></svg>
